X: 79
T: SLIP JIGS: Boys of Ballisodare Set
T: Boys of Ballisodare
C: C: Trad. / Trad. / Tommy Potts; S: Various
C: Set Leaders: Andrey, Anton
Z: Anton Zille ed., Oleg Naumov arr.; Will Harmon / agentf64 / James Dumbelton at The Session
N: https://thesession.org/members/26966/sets/96719
R: Slip Jig
M: 9/8
L: 1/8
Q: 3/8=114
K: Gmaj
|:"G"D2G G2A B2d|"C"ege d2e g3|"G"D2G G2B d2B|"C"AGA B2G "D"E2G|
"G"D2G G2A B2d|"C"ege d2e "D"g2a|"Em"b2a g2e d2B|"C"AGA B2G "D"E2G:||
|:"G"B2d d2B d2B|"D"d3 def g3|"C"B2d d2B d2B|"C"AGA B2G "D"E2G|
"G (Am)"B2d d2B d2B|"D (Bm)"d3 def g2a|"Em"b2a g2e d2B|"C"AGA B2G "D"E2G:||
T: Rocky Road to Dublin
K: Ador
|:"Em"e=fe "D"d2B "Em"A3|"Am"E2A A2A Bcd|"Am"e=fe d2B A2c|"G"B2G G2A Bcd:||
"Am"e2a a2f "G"g3|"Am"e2a a2A "G"Bcd|"Am"e2a a2f "G"g2e|"D"d2B "G"G2A "Em"Bcd|
"Am"e2a a2f "G"g3|"Am"e2a a2A "G"Bcd|"Am"efg fga g2e|"D"d2B "G"G2A Bcd||
T: Butterfly
K: Emin
|:"Em"B2E G2E "D"F3|"Em"B2E G2E "D"FED|"Em"B2E G2E "D"F3|"G"B2d d2B "D"AFD:||
|:"Am"B2c e2f g3|"Bm"B2c g2e dBA|"C"B2c e2f g2a|"D"b2a g2e dBA:||
|:"Em"B3 B2A G2A|"D"B3 BAB dBA|"C"B3 B2A G2A|"D"B2d g2e dBA:||

